src/assets/svg/hamburger.svg

<?xml version="1.0"?>
<svg viewBox="0 0 284 277">
  <g><path d="M141.888675,0.0234927555 C63.5359948,0.0234927555 0,63.5477395 0,141.912168 C0,204.6023 40.6554239,257.788232 97.0321356,276.549924 C104.12328,277.86336 106.726656,273.471926 106.726656,269.724287 C106.726656,266.340838 106.595077,255.16371 106.533987,243.307542 C67.0604204,251.890693 58.7310279,226.56652 58.7310279,226.56652 C52.2766299,210.166193 42.9768456,205.805304 42.9768456,205.805304 C30.1032937,196.998939 43.9472374,197.17986 43.9472374,197.17986 C58.1953153,198.180797 65.6976425,211.801527 65.6976425,211.801527 C78.35268,233.493192 98.8906827,227.222064 106.987463,223.596605 C108.260955,214.426049 111.938106,208.166669 115.995895,204.623447 C84.4804813,201.035582 51.3508808,188.869264 51.3508808,134.501475 C51.3508808,119.01045 56.8936274,106.353063 65.9701981,96.4165325 C64.4969882,92.842765 59.6403297,78.411417 67.3447241,58.8673023 C67.3447241,58.8673023 79.2596322,55.0538738 106.374213,73.4114319 C117.692318,70.2676443 129.83044,68.6910512 141.888675,68.63701 C153.94691,68.6910512 166.09443,70.2676443 177.433682,73.4114319 C204.515368,55.0538738 216.413829,58.8673023 216.413829,58.8673023 C224.13702,78.411417 219.278012,92.842765 217.804802,96.4165325 C226.902519,106.353063 232.407672,119.01045 232.407672,134.501475 C232.407672,188.998493 199.214632,200.997988 167.619331,204.510665 C172.708602,208.913848 177.243363,217.54869 177.243363,230.786433 C177.243363,249.771339 177.078889,265.050898 177.078889,269.724287 C177.078889,273.500121 179.632923,277.92445 186.825101,276.531127 C243.171268,257.748288 283.775,204.581154 283.775,141.912168 C283.775,63.5477395 220.248404,0.0234927555 141.888675,0.0234927555" /></g>
</svg>

<svg viewBox="0 0 284 277"><path d="M141.889.023C63.536.023 0 63.548 0 141.913c0 62.69 40.655 115.875 97.032 134.637 7.091 1.313 9.695-3.078 9.695-6.826 0-3.383-.132-14.56-.193-26.416-39.474 8.583-47.803-16.741-47.803-16.741-6.454-16.4-15.754-20.762-15.754-20.762-12.874-8.806.97-8.625.97-8.625 14.248 1 21.75 14.622 21.75 14.622 12.656 21.691 33.194 15.42 41.29 11.795 1.274-9.171 4.951-15.43 9.009-18.974-31.516-3.587-64.645-15.754-64.645-70.122 0-15.49 5.543-28.148 14.62-38.084-1.474-3.574-6.33-18.006 1.374-37.55 0 0 11.915-3.813 39.03 14.544 11.317-3.143 23.455-4.72 35.514-4.774 12.058.054 24.205 1.63 35.545 4.774 27.081-18.357 38.98-14.544 38.98-14.544 7.723 19.544 2.864 33.976 1.39 37.55 9.099 9.936 14.604 22.593 14.604 38.084 0 54.497-33.193 66.497-64.789 70.01 5.09 4.403 9.624 13.038 9.624 26.275 0 18.985-.164 34.265-.164 38.938 0 3.776 2.554 8.2 9.746 6.807 56.346-18.783 96.95-71.95 96.95-134.619C283.775 63.548 220.248.023 141.889.023"/></svg>
